X:6039
T:Silkesvalsen
O:england
S:Vals från Älvdalen
A:Älvdalen, Dalarna (Sweden)
M:3/4
L:1/8
Q:1/4=170
K:Gm
D2|G2B2d2|g4g2|fg fe dc|B4A2|G^F GA Bc|d2 dB G2|\
((3BcB) A^F AF|[1G4:|[2G4A2|:\
B2 Bd fd|d2 BG BG|A2 Ac =ec|c2 A^F AF|G2 GA Bc|\
d2 dB G2|((3BcB) A^F AF|[1G4A2:|[2G6|]\
T:Andrastämma
G,2|B,2D2G2|B4B2|de dc BA|G4^F2|D2D^F GA|B2 BG D2|\
G2 DC CA,|[1[B,4D4]:|[2[B,4D4]C2|:\
DG GB dB|BG GD DB,|D^F FA cA| A^F FD DC|B,2 B,D GA|\
B2 BG D2|G2 DC CA,|[1[B,4D4]D2 :|[2[B,6D6]|]


